packages/ffe-icons/icons/filled/lg/grid_on.svg

<svg xmlns="http://www.w3.org/2000/svg" height="40" viewBox="0 -960 960 960" width="40"><path d="M202.565-140.001H333.36v-192.975H140.001v130.411q0 25.609 18.478 44.086 18.477 18.478 44.086 18.478Zm181.05 0h192.77v-192.975h-192.77v192.975Zm243.025 0h130.795q25.609 0 44.086-18.478 18.478-18.477 18.478-44.086v-130.411H626.64v192.975Zm-486.639-243.23H333.36v-193.538H140.001v193.538Zm243.614 0h192.77v-193.538h-192.77v193.538Zm243.025 0h193.359v-193.538H626.64v193.538ZM140.001-627.024H333.36v-192.975H202.565q-25.609 0-44.086 18.478-18.478 18.477-18.478 44.086v130.411Zm243.614 0h192.77v-192.975h-192.77v192.975Zm243.025 0h193.359v-130.411q0-25.609-18.478-44.086-18.477-18.478-44.086-18.478H626.64v192.975Z"/></svg>

<svg xmlns="http://www.w3.org/2000/svg" viewBox="0 -960 960 960" width="32" height="32"><path d="M202.57-140h130.79v-192.98H140v130.41q0 25.61 18.48 44.09Q176.96-140 202.57-140Zm181.05 0h192.76v-192.98H383.62V-140Zm243.02 0h130.79q25.61 0 44.09-18.48Q820-176.96 820-202.57v-130.41H626.64V-140ZM140-383.23h193.36v-193.54H140v193.54Zm243.62 0h192.76v-193.54H383.62v193.54Zm243.02 0H820v-193.54H626.64v193.54ZM140-627.02h193.36V-820H202.57q-25.61 0-44.09 18.48Q140-783.04 140-757.43v130.41Zm243.62 0h192.76V-820H383.62v192.98Zm243.02 0H820v-130.41q0-25.61-18.48-44.09Q783.04-820 757.43-820H626.64v192.98Z"/></svg>
